X:95
T: Johnny Cronin's
Z: B.Black
R: reel
M: 4/4
L: 1/8
K: G
EF | G2 FG EGDE | GFGA Bcdg | eB B2 edBA | GBAG EGDE |
G2 FG EGDE | GFGA Bcdg | eB B2 dBAF | GBAF G2 :|
Ac | Bdd^c d2 d=c | Bd d2 efgd | Bd d2 dBGB | cABG FGAc |
Bdd^c d2 d=c | Bd d2 efga | bgaf gedB | cBAG FG :|
Ac | BGGF G2 DG | BG G2 Bdgd | BG G2 GBAB | cABG FGAc |
BGGF G2 DG | BG G2 Bdga | bgaf gedB | cBAG FG :|
